!!!COM: Bach, Johann Sebastian
!!!CDT: 1685/3//-1750/7/28/
!!!OTL@@DE: Herr Jesu Christ, dich zu uns wend'
!!!AGN: 4-Part Chorale
!!!SCT: BH 136
!!!SCT: BWV 332
**harm	**root	**kern	**kern	**kern	**kern
!	!	!bass	!tenor	!alto	!soprno
*	*Iorgan	*Iorgan	*Iorgan	*Iorgan	*Iorgan
*	*	*clefF4	*clefF4	*clefG2	*clefG2
*k[f#]	*k[f#]	*k[f#]	*k[f#]	*k[f#]	*k[f#]
*G:	*G:	*G:	*G:	*G:	*G:
*M4/4	*M4/4	*M4/4	*M4/4	*M4/4	*M4/4
*met(c)	*met(c)	*met(c)	*met(c)	*met(c)	*met(c)
*MM60	*MM60	*MM60	*MM60	*MM60	*MM60
I	4GG	4GG	4B	4d	4g
=1	=1	=1	=1	=1	=1
I	4GG	4GG	4d	4g	4b
Vb	4DD	4FF#	4d	[4a	4dd
I	4GG	8GG	4d	8a]	4b
.	.	8BB	.	4g	.
V	4DD	4D	4d	.	4a
.	.	.	.	8f#	.
=2	=2	=2	=2	=2	=2
I	4GG	8G	4d	4g	4b
.	.	8F#	.	.	.
viiob/V	4CC#	4E	4e	4g	4cc#
V;	4DD;	4D;	4A;	4f#;	4dd;
ii	4AA	8A	4cn	4a	4ee
.	.	8G	.	.	.
=3	=3	=3	=3	=3	=3
V7	4DD	4F#	4d	4.a	8dd
.	.	.	.	.	8cc
I	4GG	4G	4d	.	4b
.	.	.	.	[8g	.
V7b/V	8AA	8C#	8e	8g]	4a
V7b/VI	8BB	8D#	4B	8f#	.
vi	8EE	8E	.	8e	8g
Vb	8DD	8F#	[8A	8d	8a
=4	=4	=4	=4	=4	=4
I	4GG	4G	8A]	4d	4b
.	.	.	4G	.	.
V	4DD	4Dn	.	4d	4a
.	.	.	8F#	.	.
I;	4GG;	4GG;	4B;	4d;	4g;
V	4DD	4D	4d	4f#	4a
!!linebreak: 2
=5	=5	=5	=5	=5	=5
I	4GG	8GG	4d	4g	4b
.	.	8AA	.	.	.
Ib	4GG	8BB	4d	4g	4b
.	.	8C#	.	.	.
V	2DD	8D	4d	4g	4a
.	.	8E	.	.	.
.	.	8F#	8A	4f#	4dd
.	.	8B	8d	.	.
=6	=6	=6	=6	=6	=6
vi7	4EE	8G	8B	4e	4dd
.	.	8E	8G	.	.
V/V	4AA	8A	4A	4e	4cc#
.	.	8AA	.	.	.
V;	4DD;	4D;	4A;	4f#;	4dd;
V7/IV	4GG	8G	4G	4d	4b
.	.	8Fn	.	.	.
=7	=7	=7	=7	=7	=7
IVb	4CC	8E	8G	4e	4ccn
.	.	8F#y	8A	.	.
I	4GG	4G	4B	8d	4b
.	.	.	.	[8g	.
V7b/V	8AA	8C#	8e	8g]	4a
V7b/VI	8BB	8D#	8B	4f#	.
vi	4EE	4E	4B	.	4g
.	.	.	.	8e	.
=8	=8	=8	=8	=8	=8
Ib	4GG	8BB	4B	4d	4g
.	.	8Cn	.	.	.
V	4DD	4Dn	4A	4d	4f#
I;	4GG;	4GG;	4B;	4d;	4g;
==	==	==	==	==	==
*-	*-	*-	*-	*-	*-
!!chor2scor: -l 2 -s 0.6 -o %b.pmx
!!!YEC: Copyright 2003 by Craig Stuart Sapp
!!!license: GNU General Public License (http://www.gnu.org/copyleft/gpl.html)
!!!SMA: 371 Bach Chorales, edited by Ludwig Erk, C.F. Peters
!!!PDT: 1850, 1865
!!!ONB: Harmony and Root analysis done manually by Craig Sapp
